X:6126
T:Smith's Reel
O:england
M:4/4
L:1/8
Q:180
S:Joey McKensie - Transcribed from a Weiser jam tape 1997  LL.B.
K:D
"A"fg|abaf bafe|dgfd efdB|AFAd Bcd2|=f/2 fedf edfg|
abaf b3 (A/2B/2c/2)|d2 fd efdB|AFAd Bcde| fdec defg||
abaf bafe|dgfd efdB|AFAd Bc d2|=f/2 fedf edfg|
abaf bafe|dgfd f=fdB|AFAd Bcde|fdec d2 fe||
"B"d2 Bd AFAd|BAFD EDB,D|A,B,DE FAde|fafd eafe|
dABd AFAd|BAFD EDB,D|A,B,D=F FAde|fdec d2 fe||
d2 Bd AFAd|BAFD ED B,2|A,B,D=F FABd|fafd eafe|
dABd AFAd|BAFD EFB,D|A,B,DE FAde| fdec defg||
"A"abaf b3 A/2B/2c/2|d2 fd efdB|AFAd Bcd2|=f/2 fedf edfg|
abaf bafe|dgfd efdB|AFAd Bcde|fafd eafg||
abaf b3 A/2B/2c/2|d2 fd efdB|AFAd Bcde|fafd eafg|
abaf b3 A/2B/2c/2|d2 fd efdB|AFAd Bcde|fdec d2 fe||
"B"dcBd BABc|dBAF EFDB,|A,B,DE FAde|fafd eafe|
dcBd BABc|dBAF EFDB,|A,B,DE FAde|fafd eafe||
dcBd BABc|dBAF EFDB,|A,B,DE FAde|fafd eafe|
dcBd BABc|dBAF EFDB,|A,B,DE FAde|fdec d2 f/2a/2||
"3rd Position"aead' bafe|"1st Position"defd edBd|A/2B/2c/2 d2 fede f
|A/2B/2c/2 dfed e2|
"3rd Position"aead' bafe|"1st Position"defd edBd|AFAd Bcde|fdec d4 f/2a/
2|
"3rd Position"aead' bafe|"1st Position"defd edBd|A/2B/2c/2d2fede f |A/2
B/2c/2 dfed e2|
"3rd Position"aead' bafe|"1st Position"defd edBd|AFAd Bcde|fdec d4 ||
